X:1
T:Nabba-Svennens polka
C:Sven Svensson
O:Broby, Skne
R:Polka
Z:Patrik Mnsson, 2008-12-03
N: Noten innehller anteckningen "StN 24/2-01"
M:2/4
L:1/16
K:G
|: g2B2 BBB2 | d2c2 ccc2 | D2F2 A2F2 | B2G2 GGG2 |
g2B2 BBB2 | d2c2 ccc2 | D2F2 c2F2 | G2GG G2 z2 :|
|: d2g2 b2aa | d2f2 a2gg | B2d2 f2e2 | e2c2 e2dd |
d2g2 b2aa | d2f2 a2gg | B2d2 c2F2 | A2G2 GGG2 :|
